images_sukapura_svg/cmd/sc_saveas.svg

<svg viewBox="0 0 16 16" xmlns="http://www.w3.org/2000/svg" xmlns:xlink="http://www.w3.org/1999/xlink"><filter id="a" color-interpolation-filters="sRGB" height="1.071" width="2.278" x="-.639" y="-.0355"><feGaussianBlur stdDeviation=".26625"/></filter><linearGradient id="b" gradientUnits="userSpaceOnUse" x1="9" x2="9" y1="15" y2="10"><stop offset="0" stop-color="#dadada"/><stop offset=".5" stop-color="#fff"/><stop offset="1" stop-color="#fff"/></linearGradient><linearGradient id="c" gradientUnits="userSpaceOnUse" x1="15" x2="15" y1="18" y2="1"><stop offset="0" stop-color="#4f4f4f"/><stop offset=".88235295" stop-color="#4f4f4f" stop-opacity=".498039"/><stop offset="1" stop-color="#b7b7b7"/></linearGradient>




     /&amp;amp;amp;gt;
 <path d="m1 0c-.554 0-1 .446-1 1v12l3.1992188 3h11.8007812c.554 0 1-.446 1-1v-14c0-.554-.446-1-1-1z" fill="#3e3e3e"/><g fill="#fff"><rect height="6" ry=".280908" width="12" x="2" y="1"/><path d="m4.5 10c-.554 0-1 .446-1 1v3c0 .554.4469243 1.031989 1 1h1v-4h2v4h4.5c.554 0 1-.446 1-1v-3c0-.554-.446-1-1-1z" fill="url(#b)"/></g><path d="m5.5 11h2v1h-2z"/><path d="m14 1h1v18h-1z" fill="url(#c)" filter="url(#a)" transform="matrix(1 0 0 .77777778 .5 .222222)"/><path d="m14 1h1.237288v13.5h-1.237288z" fill="url(#c)" filter="url(#a)" transform="matrix(1 0 0 .77777778 -13.237288 .222222)"/><path d="m4 5h8v1h-8z" fill="#bababa"/><path d="m4 3h8v1h-8z" fill="#bababa"/><path d="m4 1h8v1h-8z" fill="#0a84ff"/><path d="m13.570312 5c-.517134 0-1.058051.2069703-1.453124.6015625a1.5003416 1.5003416 0 0 0 -.011719.0097656l-5.3378909 5.4472659a1.5003416 1.5003416 0 0 0 -.3515625.582031 1.5003416 1.5003416 0 0 0 -.2441406.412109l-1.0683594 2.712891a1.5003416 1.5003416 0 0 0 1.7265625 2.011719l2.921875-.658203a1.5003416 1.5003416 0 0 0 .4277349-.167969l.578124-.337891a1.5003416 1.5003416 0 0 0 .31836-.25l4.923828-5.066406v-3.7226562l-.974609-.9726563c-.401372-.4008445-.937881-.6015625-1.455079-.6015625z" fill="#fff" fill-opacity=".784314"/><g fill="#eac282" transform="translate(-.495572 -.5)"><path d="m8.0648836 13.101074-1.0693114 2.712486 2.9227772-.657095z" fill="#a2a2a7" stroke="#848489" stroke-linecap="square"/><path d="m11.861005 8.958496-3.524935 3.651053 2.158551 2.207933 3.493336-3.734963z" fill="#fc0" stroke="#c89e00"/><path d="m14.065594 7c-.142171 0-.283638.05379-.392578.1625977l-1.255371 1.2524416 2.135742 2.1372067 1.283203-1.229004c.21788-.2175952.21788-.5675602 0-.7851562l-1.376953-1.3754881c-.108941-.108798-.251871-.1625977-.394043-.1625977z" fill="#e68497" stroke="#b6496c"/><path d="m13.411678 10.101871-.552201-.5355508-3.5918326 3.4336798.7279278.5z" fill="#ffe014"/></g></svg>

<?xml version="1.0" encoding="UTF-8" standalone="no"?>
<svg
   xmlns:dc="http://purl.org/dc/elements/1.1/"
   xmlns:cc="http://creativecommons.org/ns#"
   xmlns:rdf="http://www.w3.org/1999/02/22-rdf-syntax-ns#"
   xmlns:svg="http://www.w3.org/2000/svg"
   xmlns="http://www.w3.org/2000/svg"
   xmlns:sodipodi="http://sodipodi.sourceforge.net/DTD/sodipodi-0.dtd"
   xmlns:inkscape="http://www.inkscape.org/namespaces/inkscape"
   viewBox="0 0 16 16"
   version="1.1"
   id="svg39"
   sodipodi:docname="sc_saveas.svg"
   inkscape:version="0.92.3 (2405546, 2018-03-11)"><metadata
   id="metadata45">
  <rdf:RDF>
    <cc:Work
       rdf:about="">
      <dc:format>image/svg+xml</dc:format>
      <dc:type
         rdf:resource="http://purl.org/dc/dcmitype/StillImage" />
      <dc:title></dc:title>
    </cc:Work>
  </rdf:RDF>
</metadata>
<defs
   id="defs43" />
<sodipodi:namedview
   pagecolor="#ffffff"
   bordercolor="#666666"
   borderopacity="1"
   objecttolerance="10"
   gridtolerance="10"
   guidetolerance="10"
   inkscape:pageopacity="0"
   inkscape:pageshadow="2"
   inkscape:window-width="1366"
   inkscape:window-height="685"
   id="namedview41"
   showgrid="true"
   inkscape:zoom="41.7193"
   inkscape:cx="15.185173"
   inkscape:cy="9.6293114"
   inkscape:window-x="0"
   inkscape:window-y="0"
   inkscape:window-maximized="1"
   inkscape:current-layer="svg39">
  <inkscape:grid
     type="xygrid"
     id="grid866" />
</sodipodi:namedview>
<filter
   id="a"
   color-interpolation-filters="sRGB"
   height="1.071"
   width="2.278"
   x="-.639"
   y="-.0355">
  <feGaussianBlur
     stdDeviation=".26625"
     id="feGaussianBlur2" />
</filter>
<linearGradient
   id="b"
   gradientUnits="userSpaceOnUse"
   x1="9"
   x2="9"
   y1="15"
   y2="10">
  <stop
     offset="0"
     stop-color="#dadada"
     id="stop5" />
  <stop
     offset=".5"
     stop-color="#fff"
     id="stop7" />
  <stop
     offset="1"
     stop-color="#fff"
     id="stop9" />
</linearGradient>
<linearGradient
   id="c"
   gradientUnits="userSpaceOnUse"
   x1="15"
   x2="15"
   y1="18"
   y2="1">
  <stop
     offset="0"
     stop-color="#4f4f4f"
     id="stop12" />
  <stop
     offset=".88235295"
     stop-color="#4f4f4f"
     stop-opacity=".498039"
     id="stop14" />
  <stop
     offset="1"
     stop-color="#b7b7b7"
     id="stop16" />
</linearGradient>




     /&amp;amp;gt;
 <g
   id="g909">
  <path
     id="path19"
     fill="#3e3e3e"
     d="m1 0c-.554 0-1 .446-1 1v12l3.1992188 3h11.8007812c.554 0 1-.446 1-1v-14c0-.554-.446-1-1-1z" />
  <g
     id="g25"
     fill="#fff">
    <rect
       id="rect21"
       y="1"
       x="2"
       width="12"
       ry=".280908"
       height="6" />
    <path
       id="path23"
       fill="url(#b)"
       d="m4.5 10c-.554 0-1 .446-1 1v3c0 .554.4469243 1.031989 1 1h1v-4h2v4h4.5c.554 0 1-.446 1-1v-3c0-.554-.446-1-1-1z" />
  </g>
  <path
     id="path27"
     d="m5.5 11h2v1h-2z" />
  <path
     id="path29"
     transform="matrix(1 0 0 .77777778 .5 .222222)"
     filter="url(#a)"
     fill="url(#c)"
     d="m14 1h1v18h-1z" />
  <path
     id="path31"
     transform="matrix(1 0 0 .77777778 -13.237288 .222222)"
     filter="url(#a)"
     fill="url(#c)"
     d="m14 1h1.237288v13.5h-1.237288z" />
  <path
     id="path33"
     fill="#bababa"
     d="m4 5h8v1h-8z" />
  <path
     id="path35"
     fill="#bababa"
     d="m4 3h8v1h-8z" />
  <path
     id="path37"
     fill="#0a84ff"
     d="m4 1h8v1h-8z" />
</g>
<path
   style="fill:#ffffff;fill-opacity:0.78431373;stroke:none;stroke-linecap:square;stroke-linejoin:miter;stroke-opacity:1"
   d="M 13.570312 5 C 13.053178 5 12.512261 5.2069703 12.117188 5.6015625 A 1.5003416 1.5003416 0 0 0 12.105469 5.6113281 L 6.7675781 11.058594 A 1.5003416 1.5003416 0 0 0 6.4160156 11.640625 A 1.5003416 1.5003416 0 0 0 6.171875 12.052734 L 5.1035156 14.765625 A 1.5003416 1.5003416 0 0 0 6.8300781 16.777344 L 9.7519531 16.119141 A 1.5003416 1.5003416 0 0 0 10.179688 15.951172 L 10.757812 15.613281 A 1.5003416 1.5003416 0 0 0 11.076172 15.363281 L 16 10.296875 L 16 6.5742188 L 15.025391 5.6015625 C 14.624019 5.200718 14.08751 5 13.570312 5 z "
   id="path868" />
<g
   id="g12"
   transform="translate(-0.49557219,-0.5)"
   style="fill:#eac282">
  <path
     style="fill:#a2a2a7;fill-opacity:1;stroke:#848489;stroke-linecap:square;stroke-linejoin:miter;stroke-opacity:1"
     id="path827"
     d="M 8.0648836,13.101074 6.9955722,15.81356 9.9183494,15.156465 Z"
     inkscape:connector-curvature="0"
     sodipodi:nodetypes="cccc" />
  <path
     d="m 11.861005,8.958496 -3.524935,3.651053 2.158551,2.207933 3.493336,-3.734963 z"
     id="path8"
     style="fill:#ffcc00;fill-opacity:1;stroke:#c89e00;stroke-opacity:1"
     inkscape:connector-curvature="0"
     sodipodi:nodetypes="ccccc" />
  <path
     d="m 14.065594,7 c -0.142171,0 -0.283638,0.05379 -0.392578,0.1625977 l -1.255371,1.2524416 2.135742,2.1372067 1.283203,-1.229004 c 0.21788,-0.2175952 0.21788,-0.5675602 0,-0.7851562 L 14.459637,7.1625977 C 14.350696,7.0537997 14.207766,7 14.065594,7 Z"
     id="path10"
     style="fill:#e68497;fill-opacity:1;stroke:#b6496c;stroke-opacity:1"
     inkscape:connector-curvature="0" />
  <path
     inkscape:connector-curvature="0"
     style="fill:#ffe014"
     d="M 13.411678,10.101871 12.859477,9.5663202 9.2676444,13 9.9955722,13.5 Z"
     id="path14"
     sodipodi:nodetypes="ccccc" />
</g>
</svg>
